X:2
T:Bear Dance
M:4/4
L:1/8
S:Bear Sessions
K:Em
B2E2E3A|B2E2E3A|G2G2F2G2|A6GA|B2B2A2A2|G2G2F4|E2G2FED2|E8:|!/
|: E2GGE2G
2|FED2D4|E2GGE2G2|A6GA|B2B2A2A2|G2G2F4|E2G2FED2|E4:|!

